X: 2205
T: MISS CHARLOTTE CAMPBELL
C: Wm Mc LEISH
Q: "Reel."
R: Reel.
%R: reel
B: James Kerr "Merry Melodies" v.2 p.23 #205
Z: 2016 John Chambers <jc:trillian.mit.edu>
M: C
L: 1/8
K: Bb
uA |\
B2 (d/c/B/A/) B2(FB) | GBFD ECCA |\
BdcA B2(FB) | GBFE DCC ::\
ug |\
fBdB FBDg |
fBdB Accg |\
[1 fBdB FBDF | EGFE DB,B, :|\
[2 fBAB GeFd | EGFE DB,B, |]

%%sep 1 1 500
%%sep 1 1 500

